svg/Frame-1261156451.svg

<svg width="48" height="75" viewBox="0 0 48 75" fill="none" xmlns="http://www.w3.org/2000/svg"><rect width="48" height="75" fill="#DADADA"/><mask id="path-2-inside-1_2483_15959" fill="white"><path d="M744 93L-696 92.9999L-696 -16.0001L744 -16L744 93Z"/></mask><path d="M744 93L-696 92.9999L-696 -16.0001L744 -16L744 93Z" fill="white"/><path d="M5.80013 64.768C5.78413 65.6 5.76013 66.28 5.72813 66.808C5.70413 67.336 5.66013 67.88 5.59613 68.44C5.55613 68.832 5.49613 69.124 5.41613 69.316C5.34413 69.508 5.23213 69.652 5.08013 69.748C4.92813 69.836 4.70013 69.9 4.39613 69.94C4.22013 69.964 4.01613 69.98 3.78413 69.988C3.55213 69.996 3.36013 69.992 3.20813 69.976L3.02813 69.124C3.46013 69.156 3.80413 69.168 4.06013 69.16C4.26813 69.144 4.41613 69.12 4.50413 69.088C4.59213 69.048 4.65213 68.98 4.68413 68.884C4.72413 68.788 4.75613 68.62 4.78013 68.38C4.82013 68.02 4.85213 67.592 4.87613 67.096C4.90013 66.6 4.91613 66.088 4.92413 65.56H2.34413V64.768H5.80013ZM0.604133 70.912C1.11613 70.088 1.46413 69.28 1.64813 68.488C1.84813 67.704 1.94813 66.628 1.94813 65.26V62.152H11.3801V62.956H2.80013V65.308C2.80013 66.684 2.69613 67.812 2.48813 68.692C2.29613 69.572 1.94013 70.456 1.42013 71.344L0.604133 70.912ZM5.34413 70.204C6.66413 69.268 7.65613 68.308 8.32013 67.324C8.64013 66.828 8.93613 66.28 9.20813 65.68C9.48813 65.08 9.73613 64.448 9.95213 63.784L10.7561 64.06C10.4921 64.812 10.2121 65.496 9.91613 66.112C9.62813 66.728 9.31613 67.296 8.98013 67.816C8.26013 68.912 7.23613 69.94 5.90813 70.9L5.34413 70.204ZM8.87213 60.148C9.07213 60.308 9.33213 60.54 9.65213 60.844C9.87613 61.044 10.1081 61.28 10.3481 61.552L9.76013 62.128C9.60013 61.952 9.47213 61.812 9.37613 61.708C9.30413 61.636 9.19613 61.52 9.05213 61.36C8.74013 61.064 8.49613 60.832 8.32013 60.664L8.87213 60.148ZM7.39613 60.184C7.40413 60.312 7.46813 61.168 7.58813 62.752C7.73213 64.384 7.94013 65.756 8.21213 66.868C8.48413 67.98 8.84013 68.868 9.28013 69.532C9.39213 69.692 9.49213 69.82 9.58013 69.916C9.67613 70.004 9.76413 70.064 9.84413 70.096C9.92413 70.136 10.0001 70.152 10.0721 70.144C10.2081 70.12 10.3161 70.052 10.3961 69.94C10.4761 69.828 10.5601 69.636 10.6481 69.364C10.7041 69.18 10.7561 68.988 10.8041 68.788C10.8521 68.58 10.8961 68.376 10.9361 68.176L11.7161 68.5C11.6521 68.788 11.5881 69.036 11.5241 69.244C11.4601 69.452 11.3801 69.68 11.2841 69.928C11.2121 70.08 11.1361 70.224 11.0561 70.36C10.9841 70.504 10.9121 70.62 10.8401 70.708C10.6241 70.996 10.3601 71.136 10.0481 71.128C9.76013 71.12 9.50013 71.024 9.26813 70.84C9.04413 70.656 8.78013 70.332 8.47613 69.868C8.04413 69.156 7.68413 68.204 7.39613 67.012C7.11613 65.82 6.89213 64.356 6.72413 62.62C6.65213 61.732 6.59213 60.924 6.54413 60.196L7.39613 60.184ZM14.1081 64.708H22.0521V68.776H21.1761V65.524H14.9841V68.848H14.1081V64.708ZM14.4921 60.772H21.6921V63.748H14.4921V60.772ZM15.3921 61.552V62.968H20.7681V61.552H15.3921ZM18.2001 68.236C18.5281 68.348 18.9041 68.488 19.3281 68.656C19.7601 68.824 20.2201 69.02 20.7081 69.244C21.7961 69.732 22.6041 70.14 23.1321 70.468L22.7001 71.32C22.0121 70.888 21.2121 70.456 20.3001 70.024C19.2361 69.552 18.4081 69.22 17.8161 69.028L18.2001 68.236ZM12.8841 70.492C14.5161 70.164 15.6601 69.78 16.3161 69.34C17.0121 68.892 17.4201 68.292 17.5401 67.54C17.6121 67.148 17.6601 66.696 17.6841 66.184H18.5841C18.5681 66.36 18.5521 66.54 18.5361 66.724C18.5201 66.9 18.5001 67.08 18.4761 67.264C18.4441 67.504 18.4041 67.744 18.3561 67.984C18.1961 68.808 17.6641 69.504 16.7601 70.072C15.9121 70.584 14.7281 71.004 13.2081 71.332L12.8841 70.492ZM26.244 65.104H33.516V67.48H26.832V66.784H32.652V65.812H27.12V70.336H32.976V69.088H26.784V68.392H33.84V71.032H26.244V65.104ZM29.928 62.608C30.032 62.736 30.168 62.94 30.336 63.22C30.496 63.452 30.608 63.628 30.672 63.748L29.88 64C29.856 63.928 29.74 63.732 29.532 63.412C29.508 63.372 29.4 63.216 29.208 62.944L29.928 62.608ZM25.104 63.544H34.728V65.26H33.864V64.252H25.956V65.26H25.104V63.544ZM27.744 61.696C27.872 61.856 28.036 62.072 28.236 62.344C28.42 62.6 28.54 62.776 28.596 62.872L27.936 63.268C27.792 63.036 27.64 62.804 27.48 62.572C27.328 62.332 27.168 62.096 27 61.864L27.744 61.696ZM32.568 61.708C32.752 61.9 33.06 62.284 33.492 62.86L32.856 63.28C32.608 62.904 32.264 62.44 31.824 61.888L32.568 61.708ZM29.772 62.416C30.06 62.024 30.3 61.656 30.492 61.312C30.684 60.968 30.864 60.58 31.032 60.148L31.86 60.388C31.604 60.956 31.384 61.412 31.2 61.756C31.024 62.092 30.796 62.444 30.516 62.812L29.772 62.416ZM24.492 62.956C24.892 62.572 25.264 62.132 25.608 61.636C25.96 61.14 26.256 60.636 26.496 60.124L27.336 60.4C27 61.056 26.644 61.64 26.268 62.152C25.932 62.608 25.572 63.04 25.188 63.448L24.492 62.956ZM25.824 61.948L26.16 61.204H29.988V61.948H25.824ZM30.648 61.948L30.996 61.204H35.028V61.948H30.648ZM41.1159 63.256H45.9519V64.036H41.1159V63.256ZM40.6599 60.928H46.3959V66.4H40.6599V60.928ZM41.4999 61.72V65.584H45.5679V61.72H41.4999ZM43.1199 61.348H43.9359V70.54H43.1199V61.348ZM40.4319 67.792H46.6719V68.608H40.4319V67.792ZM39.7119 70H47.1399V70.816H39.7119V70ZM37.9719 61.852H38.7879V69.448H37.9719V61.852ZM36.3279 69.52C36.9279 69.432 37.5759 69.3 38.2719 69.124C38.9039 68.98 39.5479 68.804 40.2039 68.596L40.3119 69.448C39.6639 69.656 39.0199 69.82 38.3799 69.94C38.1639 69.98 37.9439 70.028 37.7199 70.084C37.3439 70.156 36.9279 70.232 36.4719 70.312L36.3279 69.52ZM36.4839 61.312H40.2519V62.128H36.4839V61.312ZM36.5799 64.924H40.1679V65.74H36.5799V64.924Z" fill="black"/><path d="M7.62939e-06 10C7.62939e-06 4.47717 4.47716 1.18257e-05 10 1.18257e-05H38C43.5229 1.18257e-05 48 4.47716 48 10V39C48 44.5229 43.5229 49 38 49H10C4.47716 49 7.62939e-06 44.5229 7.62939e-06 39V10Z" fill="url(#paint0_linear_2483_15959)"/><path d="M23.6877 23.5004C26.3107 23.5004 28.4379 21.3732 28.4379 18.7502C28.4379 16.1273 26.3107 14 23.6877 14C21.0648 14 18.9375 16.1273 18.9375 18.7502C18.9375 21.3732 21.0648 23.5004 23.6877 23.5004Z" fill="url(#paint1_linear_2483_15959)" stroke="url(#paint2_linear_2483_15959)" stroke-width="0.4"/><path opacity="0.8" d="M13.5233 23.5006C15.349 23.5006 16.8278 22.0218 16.8278 20.1961C16.8278 18.3704 15.349 16.8916 13.5233 16.8916C11.6975 16.8916 10.2188 18.3704 10.2188 20.1961C10.2188 22.0218 11.6975 23.5006 13.5233 23.5006Z" fill="url(#paint3_linear_2483_15959)"/><path opacity="0.8" d="M33.8475 23.5006C32.0217 23.5006 30.543 22.0218 30.543 20.1961C30.543 18.3704 32.0217 16.8916 33.8475 16.8916C35.6732 16.8916 37.152 18.3704 37.152 20.1961C37.152 22.0218 35.6732 23.5006 33.8475 23.5006Z" fill="url(#paint4_linear_2483_15959)"/><path d="M31.6473 30.2332C31.6473 30.2332 31.6473 30.2498 31.6514 30.2621C31.8621 31.3733 31.796 33.546 30.1314 33.546H17.1819C15.8188 33.546 15.6288 32.1168 15.6329 31.1544C15.637 30.1919 15.8105 29.436 16.3434 28.6099C16.7977 27.9036 17.3925 27.2798 18.0782 26.7594C19.5405 25.6441 21.391 25.0286 23.2663 24.9502C23.4067 24.946 23.5472 24.9419 23.6876 24.9419C27.1408 24.9419 30.9823 26.8255 31.6514 30.2332H31.6473Z" fill="url(#paint5_linear_2483_15959)" stroke="url(#paint6_linear_2483_15959)" stroke-width="0.4"/><path opacity="0.8" d="M14.9557 27.7135C15.505 26.8626 16.2568 26.0985 17.116 25.4417C17.1408 25.421 17.1655 25.4086 17.1903 25.388C16.0833 24.8221 14.7533 24.5288 13.5223 24.5288C13.4067 24.5288 13.2952 24.5288 13.1795 24.5371C11.6594 24.6032 10.16 25.103 8.97865 26.0035C8.42515 26.4248 7.94187 26.9287 7.57424 27.4987C7.14466 28.1679 7.00422 28.7792 7.00009 29.5599C6.99595 30.3406 7.15292 31.4972 8.25579 31.4972H13.9891C13.985 31.3815 13.9808 31.2659 13.9808 31.1461C13.9891 29.7912 14.2824 28.7627 14.9557 27.7135Z" fill="url(#paint7_linear_2483_15959)"/><path opacity="0.8" d="M40.2988 28.8371L40.2947 28.8123C39.7536 26.053 36.6391 24.5288 33.8468 24.5288C33.7311 24.5288 33.6196 24.5288 33.5039 24.5371C32.3804 24.5866 31.1743 24.8717 30.1953 25.3797C31.67 26.4702 32.8802 27.9779 33.2644 29.8904L33.2809 29.9688C33.3222 30.1878 33.4131 30.7826 33.3842 31.4972H39.072C40.4227 31.4972 40.4764 29.7375 40.303 28.8371H40.2988Z" fill="url(#paint8_linear_2483_15959)"/><defs><linearGradient id="paint0_linear_2483_15959" x1="24" y1="2.05424" x2="24" y2="48.7786" gradientUnits="userSpaceOnUse"><stop stop-color="#7E73F4"/><stop offset="1" stop-color="#44C5F5"/></linearGradient><linearGradient id="paint1_linear_2483_15959" x1="23.6877" y1="14" x2="23.6877" y2="23.5004" gradientUnits="userSpaceOnUse"><stop offset="0.127496" stop-color="white"/><stop offset="1" stop-color="#BAC9FF" stop-opacity="0.6"/></linearGradient><linearGradient id="paint2_linear_2483_15959" x1="23.6877" y1="14" x2="23.6877" y2="23.5004" gradientUnits="userSpaceOnUse"><stop offset="0.197115" stop-color="white"/><stop offset="1" stop-color="#859FFF"/></linearGradient><linearGradient id="paint3_linear_2483_15959" x1="13.3856" y1="16.8916" x2="13.3856" y2="23.5006" gradientUnits="userSpaceOnUse"><stop stop-color="white"/><stop offset="1" stop-color="#D0DAFF"/></linearGradient><linearGradient id="paint4_linear_2483_15959" x1="33.7098" y1="16.8916" x2="33.7098" y2="23.5006" gradientUnits="userSpaceOnUse"><stop stop-color="white"/><stop offset="1" stop-color="#D0DAFF"/></linearGradient><linearGradient id="paint5_linear_2483_15959" x1="23.6849" y1="24.9419" x2="23.6849" y2="33.546" gradientUnits="userSpaceOnUse"><stop offset="0.127496" stop-color="white"/><stop offset="1" stop-color="#BAC9FF" stop-opacity="0.6"/></linearGradient><linearGradient id="paint6_linear_2483_15959" x1="23.6849" y1="24.9419" x2="23.6849" y2="33.546" gradientUnits="userSpaceOnUse"><stop offset="0.197115" stop-color="white"/><stop offset="1" stop-color="#859FFF"/></linearGradient><linearGradient id="paint7_linear_2483_15959" x1="11.8829" y1="24.5288" x2="11.8829" y2="31.4972" gradientUnits="userSpaceOnUse"><stop stop-color="white"/><stop offset="1" stop-color="#D0DAFF"/></linearGradient><linearGradient id="paint8_linear_2483_15959" x1="35.0725" y1="24.5288" x2="35.0725" y2="31.4972" gradientUnits="userSpaceOnUse"><stop stop-color="white"/><stop offset="1" stop-color="#D0DAFF"/></linearGradient></defs></svg>

<svg fill="none" viewBox="0 0 48 75"><path fill="#DADADA" d="M0 0h48v75H0z"/><path fill="white" d="M744 93H-696V-16H744z"/><path fill="black" d="M5.8 64.768q-.024 1.248-.072 2.04a24 24 0 0 1-.132 1.632q-.06.588-.18.876a.84.84 0 0 1-.336.432q-.228.132-.684.192a6 6 0 0 1-1.188.036l-.18-.852q.648.048 1.032.036.312-.024.444-.072a.33.33 0 0 0 .18-.204q.06-.144.096-.504.06-.54.096-1.284t.048-1.536h-2.58v-.792zM.604 70.912q.768-1.236 1.044-2.424.3-1.176.3-3.228v-3.108h9.432v.804H2.8v2.352q0 2.064-.312 3.384-.288 1.32-1.068 2.652zm4.74-.708q1.98-1.404 2.976-2.88.48-.744.888-1.644.42-.9.744-1.896l.804.276a20 20 0 0 1-.84 2.052q-.432.924-.936 1.704Q7.9 69.46 5.908 70.9zm3.528-10.056q.3.24.78.696.336.3.696.708l-.588.576-.384-.42q-.108-.108-.324-.348l-.732-.696zm-1.476.036q.012.192.192 2.568.216 2.448.624 4.116t1.068 2.664q.168.24.3.384a.9.9 0 0 0 .264.18q.12.06.228.048a.49.49 0 0 0 .324-.204q.12-.168.252-.576a10 10 0 0 0 .156-.576 21 21 0 0 0 .132-.612l.78.324a10 10 0 0 1-.192.744 10 10 0 0 1-.24.684 6 6 0 0 1-.228.432q-.108.216-.216.348-.324.432-.792.42a1.3 1.3 0 0 1-.78-.288q-.336-.276-.792-.972-.648-1.068-1.08-2.856-.42-1.788-.672-4.392-.108-1.332-.18-2.424zm6.712 4.524h7.944v4.068h-.876v-3.252h-6.192v3.324h-.876zm.384-3.936h7.2v2.976h-7.2zm.9.78v1.416h5.376v-1.416zm2.808 6.684q.492.168 1.128.42.648.252 1.38.588 1.632.732 2.424 1.224l-.432.852a23 23 0 0 0-2.4-1.296q-1.596-.708-2.484-.996zm-5.316 2.256q2.448-.492 3.432-1.152 1.044-.672 1.224-1.8.108-.588.144-1.356h.9l-.048.54q-.024.264-.06.54-.048.36-.12.72-.24 1.236-1.596 2.088-1.272.768-3.552 1.26zm13.36-5.388h7.272v2.376h-6.684v-.696h5.82v-.972H27.12v4.524h5.856v-1.248h-6.192v-.696h7.056v2.64h-7.596zm3.684-2.496q.156.192.408.612.24.348.336.528L29.88 64q-.036-.108-.348-.588-.036-.06-.324-.468zm-4.824.936h9.624v1.716h-.864v-1.008h-7.908v1.008h-.852zm2.64-1.848q.192.24.492.648.276.384.36.528l-.66.396a17 17 0 0 0-.456-.696q-.228-.36-.48-.708zm4.824.012q.276.288.924 1.152l-.636.42q-.372-.564-1.032-1.392zm-2.796.708q.432-.588.72-1.104t.54-1.164l.828.24a23 23 0 0 1-.66 1.368 7.5 7.5 0 0 1-.684 1.056zm-5.28.54q.6-.576 1.116-1.32.528-.744.888-1.512l.84.276q-.504.984-1.068 1.752-.504.684-1.08 1.296zm1.332-1.008.336-.744h3.828v.744zm4.824 0 .348-.744h4.032v.744zm10.468 1.308h4.836v.78h-4.836zm-.456-2.328h5.736V66.4H40.66zm.84.792v3.864h4.068V61.72zm1.62-.372h.816v9.192h-.816zm-2.688 6.444h6.24v.816h-6.24zM39.712 70h7.428v.816h-7.428zm-1.74-8.148h.816v7.596h-.816zm-1.644 7.668q.9-.132 1.944-.396.948-.216 1.932-.528l.108.852q-.972.312-1.932.492-.324.06-.66.144-.564.108-1.248.228zm.156-8.208h3.768v.816h-3.768zm.096 3.612h3.588v.816H36.58z"/><path fill="url(#a)" d="M0 10C0 4.477 4.477 0 10 0h28c5.523 0 10 4.477 10 10v29c0 5.523-4.477 10-10 10H10C4.477 49 0 44.523 0 39z"/><path fill="url(#b)" stroke="url(#c)" stroke-width=".4" d="M23.688 23.5A4.75 4.75 0 1 0 23.687 14a4.75 4.75 0 0 0 0 9.501Z"/><path fill="url(#d)" d="M13.523 23.5a3.304 3.304 0 1 0 0-6.608 3.304 3.304 0 1 0 0 6.609" opacity=".8"/><path fill="url(#e)" d="M33.848 23.5a3.304 3.304 0 1 1 0-6.608 3.304 3.304 0 1 1 0 6.609" opacity=".8"/><path fill="url(#f)" stroke="url(#g)" stroke-width=".4" d="M31.647 30.233s0 .017.004.03c.211 1.11.145 3.283-1.52 3.283h-12.95c-1.362 0-1.552-1.43-1.548-2.392s.178-1.718.71-2.544a7.3 7.3 0 0 1 1.735-1.85c1.463-1.116 3.313-1.731 5.188-1.81q.21-.007.422-.008c3.453 0 7.294 1.884 7.963 5.291z"/><path fill="url(#h)" d="M14.956 27.714c.549-.851 1.3-1.615 2.16-2.272.025-.021.05-.033.074-.054-1.107-.566-2.437-.86-3.668-.86-.115 0-.227 0-.342.01-1.52.065-3.02.565-4.201 1.465A6 6 0 0 0 7.574 27.5c-.43.669-.57 1.28-.574 2.06-.004.782.153 1.938 1.256 1.938h5.733q-.007-.173-.008-.35c.008-1.356.301-2.384.975-3.433" opacity=".8"/><path fill="url(#i)" d="m40.299 28.837-.004-.025c-.541-2.759-3.656-4.283-6.448-4.283-.116 0-.227 0-.343.008-1.124.05-2.33.335-3.309.843 1.475 1.09 2.685 2.598 3.07 4.51l.016.079c.041.219.132.814.103 1.528h5.688c1.35 0 1.404-1.76 1.231-2.66z" opacity=".8"/><defs><linearGradient id="a" x1="24" x2="24" y1="2.054" y2="48.779" gradientUnits="userSpaceOnUse"><stop stop-color="#7E73F4"/><stop offset="1" stop-color="#44C5F5"/></linearGradient><linearGradient id="b" x1="23.688" x2="23.688" y1="14" y2="23.5" gradientUnits="userSpaceOnUse"><stop offset=".127" stop-color="white"/><stop offset="1" stop-color="#BAC9FF" stop-opacity=".6"/></linearGradient><linearGradient id="c" x1="23.688" x2="23.688" y1="14" y2="23.5" gradientUnits="userSpaceOnUse"><stop offset=".197" stop-color="white"/><stop offset="1" stop-color="#859FFF"/></linearGradient><linearGradient id="d" x1="13.386" x2="13.386" y1="16.892" y2="23.501" gradientUnits="userSpaceOnUse"><stop stop-color="white"/><stop offset="1" stop-color="#D0DAFF"/></linearGradient><linearGradient id="e" x1="33.71" x2="33.71" y1="16.892" y2="23.501" gradientUnits="userSpaceOnUse"><stop stop-color="white"/><stop offset="1" stop-color="#D0DAFF"/></linearGradient><linearGradient id="f" x1="23.685" x2="23.685" y1="24.942" y2="33.546" gradientUnits="userSpaceOnUse"><stop offset=".127" stop-color="white"/><stop offset="1" stop-color="#BAC9FF" stop-opacity=".6"/></linearGradient><linearGradient id="g" x1="23.685" x2="23.685" y1="24.942" y2="33.546" gradientUnits="userSpaceOnUse"><stop offset=".197" stop-color="white"/><stop offset="1" stop-color="#859FFF"/></linearGradient><linearGradient id="h" x1="11.883" x2="11.883" y1="24.529" y2="31.497" gradientUnits="userSpaceOnUse"><stop stop-color="white"/><stop offset="1" stop-color="#D0DAFF"/></linearGradient><linearGradient id="i" x1="35.072" x2="35.072" y1="24.529" y2="31.497" gradientUnits="userSpaceOnUse"><stop stop-color="white"/><stop offset="1" stop-color="#D0DAFF"/></linearGradient></defs></svg>
